X:1
T:The Erl King
T:John Wall  Callcott (1766-1821)
T:Published 1798 or possibly earlier. Poem by Matthew Lewis (1775-1818), translated from Goethe
T:The Erl King
T:A glee
C:John Wall  Callcott (1766-1821)
Z:Published 1798 or possibly earlier.
Z:Poem by Matthew Lewis (1775-1818),
Z:translated from Goethe
%%score [ 1 2 ( 3 4 ) ] { ( 5 7 ) | 6 }
L:1/8
M:3/8
K:Eb
V:1 treble nm="1st Treble"
V:2 treble nm="2nd Treble"
V:3 bass nm="Bass"
V:4 bass 
V:5 treble nm="Piano"
V:7 treble 
V:6 bass 
V:1
!mf!"^Briskly" B | BGc | B2 G/A/ | B<Gc | B2 B | ddd | eee | AAG | (GF)(B/c/) | dBe | d>Bc | dBe | %12
w: Who|is it that|rides through the|fo- rest so|fast, Whilst|night glooms a-|round him, Whilst|chill roars the|blast? _ The _|Fa- ther who|holds his young|Son in his|
 d2 d | eee | ddf | edc | B2 z | z3 | z3 | z3 | z2"^1st Treble solo" B | _dcB | _dcc | BAG | F2 F | %25
w: arm, And|close in his|man- tle has|wrapped him up|warm.||||My|Fa- ther, my|Fa- ther, the|Erl King is|near! The|
 BFB/A/ | G>AB | cde | (e!fermata!d)!p!d | eGG | GGG | cFF | F2 F | F>GA | B>AG | (c/A/)GF | %36
w: Erl King with his|Crown, and his|beard long and|white. _ My|Child you're de-|ceived by the|va- pours of|night, My|Child you're de-|ceived by the|va- * pours of|
 !fermata!E2 || z | z3 | z3 | z3 | z3 | z3 | z3 | z3 | z3 | z3 | z3 | z3 | z3 | z3 | z3 | z3 | %53
w: night.|||||||||||||||||
 z2"^espressivo""^1st Treble Solo" B | _dcB | _dcc | BAG | A2 F | B2 F | GEB/B/ | cAF | (ED)!pp!B | %62
w: My|fa- ther, my|Fa- ther, and|dost thou not|hear, What|words the|Erl King whis- pers|soft in my|ear? _ Oh|
 BBB | BBe | cc(d/e/) | (ed)d | eGG | GGG | cFF | F2"^cresc." F | F>GA | B>A"^dim."G | (c/A/)GF | %73
w: hush thee my|Child, set thy|bo- som at _|ease; _ Thou|hear'st but the|will- ows when|mur- murs the|breeze, Thou|hear'st but the|will- ows when|mur- * murs the|
 E2 || z | z3 | z3 | z3 | z3 | z3 | z3 | z3 | z3 | z3 | z3 | z3 | z3 | z3 | z3 | z3 | %90
w: breeze.|||||||||||||||||
 z2"^espressivo""^1st Treble Solo" B | _dcB | _dcc | BAG | A2 F | BFA/A/ | GEB | cAF | (ED)!f!B | %99
w: My|Fa- ther, my|Fa- ther, and|dost thou not|see The|Erl King and his|Daugh- ter are|wait- ing for|me _ Oh|
 BBB | BBe | cc(d/e/) | (ed)!mf!d | eGG | GGG | cFF | F2"^dim." F | F>GA | B>AG | (c/A/)GF | E2 || %111
w: shame thee, my|In- fant, 'tis|fear makes thee *|blind, * Thou|see'st the dark|will- ows which|wave in the|wind; Thou|see'st the dark|will- ows that|wave * in the|wind.|
 z | z3 | z3 | z3 | z3 | z3 | z3 | z3 | z2"^espressivo""^1st Treble Solo" B | !>!_dcB | !>!_dcc | %122
w: ||||||||My|Fa- ther, my|Fa- ther, oh|
 BAG | A2 c | =BGe | dGf | edc | !fermata!G2 ||!f!"^Very fast" B | BGc | BGA | BGc | B2 B | ddd | %134
w: hold me now|fast, He|pulls me, he|hurts me, he'll|have me at|last.|The|Fa- ther he|trem- bled, he|doub- led his|speed, O'er|hills and through|
 eee | AAG | (G!fermata!F)!p!F |"^Slowly" BBF | G>AB | cde | (ed)d | eGG | GGG | cFF | %144
w: fo- rests he|spurred his black|steed; * But|when he ar-|rived at his|own Cas- tle|door, * Life|throbbed in the|poor Ba- by's|bo- som no|
 F2"^Espressivo" F | F>GA | B>AG | (c/A/)GF | E2 |] %149
w: more; Life|throbbed in the|poor Ba- by's|bo- * som no|more.|
V:2
!mf! G | GEA | G2 E/F/ | G<EA | G2 G | AAA | GGG | FFE | (ED)(D/E/) | FDG | F>DE | FDG | F2 B | %13
w: Who|is it that|rides through the|fo- rest so|fast, Whilst|night glooms a-|round him, Whilst|chill roars the|blast? _ The _|Fa- ther who|holds his young|Son in his|arm, And|
 =AAc | BBd | cB=A | B2"^2nd Treble solo" G | ECE | GGG | cEC | G2 z | z3 | z3 | z3 | z3 | z3 | %26
w: close in his|man- tle has|wrapped him up|warm. Why|trem- bles my|dar- ling? why|shrinks he with|fear?||||||
 z3 | z3 | z !fermata!z!p! F | GEE | EEE | EEE | E2 E | D>EF | G>FE | (E/F/)ED | !fermata!E2 || z | %38
w: ||My|Child you're de-|ceived by the|va- pours of|night, My|Child you're de-|ceived by the|va- * pours of|night.||
 z3 | z3 | z3 | z3 | z3 | z3 | z3 | z3 | z3 | z3 | z3 | z3 | z3 | z3 | z3 | z3 | z3 | z3 | z3 | %57
w: |||||||||||||||||||
 z3 | z3 | z3 | z3 | z2!pp! G | FFA | GGB | AAA | (GF)F | GEE | EEE | EEE | E2"^cresc." E | D>EF | %71
w: ||||Oh|hush thee my|Child, set thy|bo- som at|ease; _ Thou|hear'st but the|will- ows when|mur- murs the|breeze, Thou|hear'st but the|
 G>F"^dim."E | (E/F/)ED | E2 || z | z3 | z3 | z3 | z3 | z3 | z3 | z3 | z3 | z3 | z3 | z3 | z3 | %87
w: will- ows when|mur- * murs the|breeze.||||||||||||||
 z3 | z3 | z3 | z3 | z3 | z3 | z3 | z3 | z3 | z3 | z3 | z2!f! G | FFA | GGB | AAA | (GF)!mf!F | %103
w: |||||||||||Oh|shame thee, my|In- fant, 'tis|fear makes thee|blind, * Thou|
 GEE | EEE | EEE | E2"^dim." E | D>EF | G>FE | (E/F/)ED | E2 || z | z3 | z3 | z3 | z3 | z3 | z3 | %118
w: see'st the dark|will- ows which|wave in the|wind; Thou|see'st the dark|will- ows that|wave * in the|wind.||||||||
 z3 | z3 | z3 | z3 | z3 | z3 | z3 | z3 | z3 | !fermata!z2 ||!f! G | GEA | GEF | GEA | G2 G | AAA | %134
w: ||||||||||The|Fa- ther, he|trem- bled, he|doub- led his|speed, O'er|hills and through|
 GGG | FFE | (E!fermata!D)!p!D | DDD | E>FG | AAG | (GF)F | GEE | EEE | EEE | E2"^Espressivo" E | %145
w: fo- rests he|spurred his black|steed; * But|when he ar-|rived at his|own Cas- tle|door, * Life|throbbed in the|poor Ba- by's|bo- som no|more; Life|
 D>EF | G>FE | (E/F/)ED | E2 |] %149
w: throbbed in the|poor Ba- by's|bo- * som no|more.|
V:3
!mf! E, | E,E,E, | E,2 E,/E,/ | E,<E,E, | E,2 E, | F,D,B,, | G,E,B,, | D,D,E, | B,,2 B,, | %9
w: Who|is it that|rides through the|fo- rest so|fast, Whilst|night glooms a-|round him, Whilst|chill roars the|blast? The|
 B,,B,,B,, | B,,>B,,B,, | B,,B,,B,, | B,,2 B, | C=A,F, | B,F,D, | E,F,F, | B,,2 z | z3 | z3 | z3 | %20
w: Fa- ther who|holds his young|Son in his|arm, And|close in his|man- tle has|wrapped him up|warm.||||
 z3 | z3 | z3 | z3 | z3 | z3 | z3 | z3 | z !fermata!z!p! B,, | E,E,E, | E,E,E, | A,,A,,A,, | %32
w: ||||||||My|Child you're de-|ceived by the|va- pours of|
 A,,2 A,, | B,,>B,,A,, | G,,>G,,C, | A,,B,,B,, | !fermata!E,2 ||"^Bass Solo" B, | G,E,E, | %39
w: night, My|Child you're de-|ceived by the|va- pours of|night.|If|thou wilt, dear|
 D,B,,=B,, | C,(C,/D,/)(E,/F,/) | G, z C | =A,F,F, | B,F,F, | D,(B,,/C,/)(D,/E,/) | F,2 (F,/E,/) | %46
w: Ba- by, with|me go _ a- *|way, I'll|give thee fine|gar- ments, we'll|play a _ fine _|play; Fine _|
 (D,/E,/)(F,/G,/)(=A,/B,/) | (=A,/B,/)CE, | (D,/E,/)(F,/G,/)(=A,/B,/) | .C2 A,/A,/ | %50
w: flo- * wers _ are _|grow- * ing, white,|scar- * let, _ and _|blue, On the|
 (B,/C/)(D/C/)(B,/=A,/) | (G,/F,/)(E,/D,/)(C,/B,,/) | (D,/E,/)F,F,, | B,,2 z | z3 | z3 | z3 | z3 | %58
w: banks _ of _ yon _|ri- * ver, _ and _|all _ are for|you.|||||
 z3 | z3 | z3 | z2!pp! E, | D,D,F, | E,E,G, | A,A,F, | B,,2 B,, | E,E,E, | E,E,E, | A,,A,,A,, | %69
w: |||Oh|hush thee my|Child, set thy|bo- som at|ease; Thou|hear'st but the|will- ows when|mur- murs the|
 A,,2"^cresc." A,, | B,,>B,,A,, | G,,>G,,"^dim."C, | A,,B,,B,, | E,2 ||"^Bass Solo" B, | G,E,E, | %76
w: breeze, Thou|hear'st but the|will- ows when|mur- murs the|breeze.|If|thou wilt, dear|
 D,B,,=B,, | C,(C,/D,/)(E,/F,/) | G, z C | =A,F,F, | B,F,F, | D,(B,,/C,/)(D,/E,/) | F,2 (F,/E,/) | %83
w: Ba- by, with|me go _ a- *|way, My|daugh- ter shall|nurse thee, so|fair and _ so _|gay; My _|
 (D,/E,/)(F,/G,/)(=A,/B,/) | (=A,/B,/)CE, | (D,/E,/)(F,/G,/)(=A,/B,/) | C2 =A, | %87
w: daugh- * ter, _ in _|pur- * ple and|gold _ who _ is _|dressed, Shall|
 (B,/C/)(D/C/)(B,/=A,/) | (G,/F,/)(E,/D,/)(C,/B,,/) | (D,/E,/)F,F,, | B,,2 z | z3 | z3 | z3 | z3 | %95
w: love _ thee, _ and _|kiss _ thee, _ and _|sing _ thee to|rest.|||||
 z3 | z3 | z3 | z2!f! E, | D,D,F, | E,E,G, | A,A,F, | B,,2!mf! B,, | E,E,E, | E,E,E, | A,,A,,A,, | %106
w: |||Oh|shame thee, my|In- fant, 'tis|fear makes thee|blind, Thou|see'st the dark|will- ows which|wave in the|
 A,,2"^dim." A,, | B,,>B,,A,, | G,,>G,,C, | A,,B,,B,, |"^With energy" E,2 ||"^Bass Solo" B, | %112
w: wind; Thou|see'st the dark|will- ows that|wave in the|wind.|I|
 G,E,B, | G,E,G, | C,(C,/D,/)(E,/F,/) | G,2 G, | E,C,G, | E,C,E, | A,,(A,,/B,,/)(C,/D,/) | E,2 z | %120
w: love thee, I|doat on thy|fea- tures _ so _|fine; I|must and will|have thee, and|force makes _ thee _|mine.|
 z3 | z3 | z3 | z3 | z3 | z3 | z3 | !fermata!z2 ||!f! E, | E,E,E, | E,E,E, | E,E,E, | E,2 E, | %133
w: ||||||||The|Fa- ther, he|trem- bled, he|doub- led his|speed, O'er|
 F,D,B,, | G,E,B,, | D,D,E, | !fermata!B,,2!p! B,, | B,,B,,B,, | E,>E,E, | A,,A,,A,, | B,,2 B,, | %141
w: hills and through|fo- rests he|spurred his black|steed; But|when he ar-|rived at his|own Cas- tle|door, Life|
 E,E,E, | E,E,E, | A,,A,,A,, | A,,2"^Espressivo" A,, | B,,>B,,A,, | G,,>G,,C, | A,,B,,B,, | E,2 |] %149
w: throbbed in the|poor Ba- by's|bo- som no|more; Life|throbbed in the|poor Ba- by's|bo- som no|more.|
V:4
 x | x3 | x3 | x3 | x3 | x3 | x3 | x3 | x3 | x3 | x3 | x3 | x3 | x3 | x3 | x3 | x3 | x3 | x3 | x3 | %20
 x3 | x3 | x3 | x3 | x3 | x3 | x3 | x3 | x3 | x3 | x3 | x3 | x3 | x3 | x3 | x3 | x2 || x | x3 | %39
 x3 | x3 | x3 | x3 | x3 | x3 | x3 | x3 | x3 | x3 | x3 | x3 | x3 | x3 | x3 | x3 | x3 | x3 | x3 | %58
 x3 | x3 | x3 | x3 | x3 | x3 | x3 | x3 | x3 | x3 | x3 | x3 | x3 | x3 | x3 | E,2 || x | x3 | x3 | %77
 x3 | x3 | x3 | x3 | x3 | x3 | x3 | x3 | x3 | x3 | x3 | x3 | x3 | x3 | x3 | x3 | x3 | x3 | x3 | %96
 x3 | x3 | x3 | x3 | x3 | x3 | x3 | x3 | x3 | x3 | x3 | x3 | x3 | x3 | x2 || x | x3 | x3 | x3 | %115
 x3 | x3 | x3 | x3 | x3 | x3 | x3 | x3 | x3 | x3 | x3 | x3 | x2 || x | x3 | x3 | x3 | x3 | x3 | %134
 x3 | x3 | x3 | x3 | x3 | x3 | x3 | x3 | x3 | x3 | x3 | x3 | x3 | x3 | x2 |] %149
V:5
"^Accompaniment added by William Horsley (1774-1858)" [GB] | [GB][EG][Ac] | [GB]2 [EG]/[FA]/ | %3
 [GB]<[EG][Ac] | [GB]2 [GB] | [Ad][Ad][Ad] | [Ge][Ge][Ge] | [FA][FA][EG] | ([EG][DF])([DB]/[Ec]/) | %9
 [Fd][DB][Ge] | [Fd]>[DB][Ec] | [Fd][DB][Ge] | [Fd]2 [Bd] | [=Ae][Ae][ce] | [Bd][Bd][df] | %15
 [ce][Bd][=Ac] | B2 (G | ECE | GGG | cEC | G2) (B |!p! _dcB | _dcc | BAG | F2) (F | BFB/A/ | %26
 G>)(AB | cde) | e!fermata!d!p!d | [Ge][EG][EG] | [EG][EG][EG] | [Ec][EF][EF] | [EF]2 [EF] | %33
 [DF]>[EG][FA] | [GB]>[FA][EG] | ([Ec]/[FA]/)[EG][DF] | !fermata!E2 || z | z3 | z3 | z3 | z3 | z3 | %43
 z3 | z3 | z3 | z3 | z3 | z3 | z3 | z3 | z3 | z3 | z2!p! (B | _dcB | _dcc | BAG | A2) (F | B2 F | %59
 GEB/B/ | cAF) | ED!pp!B | [FB][FB][AB] | [GB][GB][Be] | cc(d/e/) | ([Ge][Fd])[Fd] | [Ge][EG][EG] | %67
 [EG][EG][EG] | [Ec][EF][EF] | [EF]2"^cresc." [EF] | ([DF]>[EG][FA]) | ([GB]>[FA]"^dim."[EG]) | %72
 ([Ec]/[FA]/[EG])[DF] | E2 || z | z3 | z3 | z3 | z3 | z3 | z3 | z3 | z3 | z3 | z3 | z3 | z3 | z3 | %88
 z3 | z3 | z2!p! B | _dcB | _dcc | (BAG | A2) (F | BFA/A/ | GE)B | (cAF | ED)!f!B | [FB][FB][AB] | %100
 [GB][GB][Be] | ccd/e/ | [Ge][Fd][Fd] | [Ge][EG][EG] | [EG][EG][EG] | [Ec][EF][EF] | %106
 [EF]2"^dim." [EF] | ([DF]>[EG][FA]) | ([GB]>[FA][EG]) | ([Ec]/[FA]/)[EG][DF] | E2 || z | z3 | z3 | %114
 z3 | z3 | z3 | z3 | z3 | z2"^espressivo" B | (_dc)B | (_dc)c | (BAG | A2) c | =BGe | dGf | edc | %127
 !fermata!G2 ||!f! [GB] | [GB][EG][Ac] | [GB][EG][FA] | [GB][EG][Ac] | [GB]2 [GB] | [Ad][Ad][Ad] | %134
 [Ge][Ge][Ge] | [FA][FA][EG] | ([EG]!fermata![DF])!p![DF] | [DB][DB][DF] | ([EG]>[FA][GB]) | %139
 ([Ac][Ad][Ge]) | ([Ge][Fd])[Fd] | ([Ge][EG][EG]) | [EG][EG][EG] | [Ec][EF][EF] | [EF]2!p! [EF] | %145
 ([DF]>[EG][FA]) | ([GB]>[FA][EG]) | ([Ec]/[FA]/[EG])[DF] | E2 |] %149
V:6
!mf! E, | E,E,E, | E,2 E,/E,/ | E,<E,E, | E,2 E, | F,D,B,, | G,E,B,, | D,D,E, | B,,2 B,, | %9
 B,,B,,B,, | B,,>B,,B,, | B,,B,,B,, | B,,2 B, | C=A,F, | B,F,D, | E,F,F, | B,,2 z | z3 | z3 | z3 | %20
 z3 | z3 | z3 | z3 | z3 | z3 | z3 | z3 | z !fermata!z B,, | E,E,E, | E,E,E, | A,,A,,A,, | %32
 A,,2 A,, | B,,>B,,A,, | G,,>G,,C, | A,,B,,B,, | !fermata!E,2 || B, | G,E,E, | D,B,,=B,, | %40
 C,C,/D,/E,/F,/ | G, z C | =A,F,F, | B,F,F, | D,B,,/C,/D,/E,/ | F,2 F,/E,/ | D,/E,/F,/G,/=A,/B,/ | %47
 =A,/B,/CE, | D,/E,/F,/G,/=A,/B,/ | .C2 A,/A,/ | B,/C/D/C/B,/=A,/ | G,/F,/E,/D,/C,/B,,/ | %52
 D,/E,/F,F,, | B,,2 z | z3 | z3 | z3 | z3 | z3 | z3 | z3 | z2 E, | D,D,F, | E,E,G, | A,A,F, | %65
 B,,2 B,, | E,E,E, | E,E,E, | A,,2 A,, | A,,2 A,, | B,,>B,,A,, | G,,>G,,C, | A,,B,,B,, | E,2 || %74
 B, | G,E,E, | D,B,,=B,, | C,C,/D,/E,/F,/ | G, z C | =A,F,F, | B,F,F, | D,B,,/C,/D,/E,/ | %82
 F,2 F,/E,/ | D,/E,/F,/G,/=A,/B,/ | =A,/B,/CE, | D,/E,/F,/G,/=A,/B,/ | C2 =A, | B,/C/D/C/B,/=A,/ | %88
 G,/F,/E,/D,/C,/B,,/ | D,/E,/F,F,, | B,,2 z | z3 | z3 | z3 | z3 | z3 | z3 | z3 | z2 E, | D,D,F, | %100
 E,E,G, | A,A,F, | B,,2!mf! B,, | E,E,E, | E,E,E, | A,,A,,A,, | A,,2 A,, | B,,2 A,, | G,,2 C, | %109
 A,,B,,B,, | E,2 || B, | G,E,B, | G,E,G, | C,C,/D,/E,/F,/ | G,2 G, | E,C,G, | E,C,E, | %118
 A,,A,,/B,,/C,/D,/ | E,2 z | z3 | z3 | z3 | z3 | z3 | z3 | z3 | z2 || E, | E,E,E, | E,E,E, | %131
 E,E,E, | E,2 E, | F,D,B,, | G,E,B,, | D,D,E, | !fermata!B,,2 B,, | B,,B,,B,, | E,2 E, | A,,2 A,, | %140
 B,,2 B,, | E,E,E, | %142
"^Source: \"A Collection of glees, canons and catches, composed by the late John Wall Calcott\", edited(c. 1824) by William Horsley, volume 2." E,E,E, | %143
 A,,A,,A,, | A,,2 A,, | B,,2 A,, | G,,2 C, | A,,2 B,, | E,2 |] %149
V:7
 x | x3 | x3 | x3 | x3 | x3 | x3 | x3 | x3 | x3 | x3 | x3 | x3 | x3 | x3 | x3 | B2 x | x3 | x3 | %19
 x3 | z2 z | x3 | x3 | x3 | x3 | x3 | x3 | x3 | z z F | x3 | x3 | x3 | x3 | x3 | x3 | x3 | E2 || %37
 x | x3 | x3 | x3 | x3 | x3 | x3 | x3 | x3 | x3 | x3 | x3 | x3 | x3 | x3 | x3 | x3 | x3 | x3 | x3 | %57
 x3 | x3 | x3 | x3 | x2 G | x3 | x3 | AAA | x3 | x3 | x3 | x3 | x3 | x3 | x3 | x3 | x2 || x | x3 | %76
 x3 | x3 | x3 | x3 | x3 | x3 | x3 | x3 | x3 | x3 | x3 | x3 | x3 | x3 | x3 | x3 | x3 | x3 | x3 | %95
 x3 | x3 | x3 | x2 G | x3 | x3 | AAA | x3 | x3 | x3 | x3 | x3 | x3 | x3 | x3 | E2 || x | x3 | x3 | %114
 x3 | x3 | x3 | x3 | x3 | x3 | x3 | x3 | x3 | x3 | x3 | x3 | x3 | x2 || x | x3 | x3 | x3 | x3 | %133
 x3 | x3 | x3 | x3 | x3 | x3 | x3 | x3 | x3 | x3 | x3 | x3 | x3 | x3 | x3 | x2 |] %149

